X:10
T:Argiers
M:4/4
K:G
GABc A3 G|F2 D2 D4|d2 A2 d3 c|B2 G2 G4|
GABc A3 G|F2 D2 D2 D2|EF G2 FG A2|G4 G4:|
FG A2 FG A2|d2 A2 d2 A2|FG A2 FG A2|d2 A2 d4|
d2 cB c2 dc|B2 AG A2 D2|EF G2 FG A2|G4 G4:||

